packages/icons/svg/Outline/skip-forward.svg

<svg fill="none" height="24" viewBox="0 0 24 24" width="24" xmlns="http://www.w3.org/2000/svg"><path clip-rule="evenodd" d="m8.50002 15.9083v-7.89403l4.82198 3.98403zm7.49998-9.90803c-.552 0-1 .447-1 1v3.81803c-.047-.049-.088-.1-.142-.144l-5.099-4.21403c-.609-.502-1.477-.604-2.209-.259-.648.306-1.05.913-1.05 1.586v8.42603c0 .673.402 1.28 1.05 1.586.289.135.599.202.906.202.471 0 .935-.157 1.303-.462l5.1-4.213c.053-.044.094-.096.141-.145v3.819c0 .553.448 1 1 1s1-.447 1-1v-10.00003c0-.553-.448-1-1-1z" fill="#6b7280" fill-rule="evenodd"/></svg>

<svg width="24" height="24" viewBox="0 0 24 24" fill="none" xmlns="http://www.w3.org/2000/svg">
<g id="Icon/Outline/skip-forward">
<path id="Mask" fill-rule="evenodd" clip-rule="evenodd" d="M8.5 15.9082V8.01421L13.322 11.9982L8.5 15.9082ZM16 6.00021C15.448 6.00021 15 6.44721 15 7.00021V10.8182C14.953 10.7692 14.912 10.7182 14.858 10.6742L9.759 6.46021C9.15 5.95821 8.282 5.85621 7.55 6.20121C6.902 6.50721 6.5 7.11421 6.5 7.78721V16.2132C6.5 16.8862 6.902 17.4932 7.55 17.7992C7.839 17.9342 8.149 18.0012 8.456 18.0012C8.927 18.0012 9.391 17.8442 9.759 17.5392L14.859 13.3262C14.912 13.2822 14.953 13.2302 15 13.1812V17.0002C15 17.5532 15.448 18.0002 16 18.0002C16.552 18.0002 17 17.5532 17 17.0002V7.00021C17 6.44721 16.552 6.00021 16 6.00021Z" fill="#000000"/>
</g>
</svg>
